**kern	**silbe
*ICvox	*
2.r;	.
=1	=1
*A-:	*
*M3/4	*
*clefG2	*
2.r	.
=2	=2
2.r	.
=3	=3
2.r	.
=4	=4
2.r	.
=5	=5
4.e-	Si-
8f	_
4e-	-lent
=6	=6
2.c	night
=7	=7
4.e-	ho-
8f	_
4e-	-ly
=8	=8
2.c	night
=9	=9
2[b-	all
8b-]	_
8b-	is
=10	=10
2.g	calm
=11	=11
2[a-	all
8a-]	_
8a-	is
=12	=12
2.e-	bright
=13	=13
2[f	round
8f]	_
8f	yon
=14	=14
4.a-	vir-
8g	_
4f	-gin
=15	=15
8r	.
4e-	mo-
8f	-ther
4e-	and
=16	=16
2.c	child
=17	=17
8r	.
4.f	ho-
4f	-ly
=18	=18
4.a-	in-
8g	-fant
4r	.
=19	=19
8r	.
8A-	so
4[e-	ten-
8e-]	_
16f	-der
16e-	and
=20	=20
2.c	mild
=21	=21
2b-	sleep
4b-	in
=22	=22
4.dd-	hea-
8b-	-ven-
4g	-ly
=23	=23
2.a-	peace
=24	=24
2.cc	_
=25	=25
4a-	sleep
4e-	_
8r	.
8c	in
=26	=26
4.e-	hea-
8d-	-ven-
4B-	-ly
=27	=27
2.[A-	peace
=28	=28
2A-]	_
4r	.
=29	=29
4.e-	Si-
8f	_
4e-	-lent
=30	=30
2.c	night
=31	=31
4.e-	ho-
8f	_
4e-	-ly
=32	=32
2.c	night
=33	=33
2[b-	all
8b-]	_
8b-	is
=34	=34
2.g	calm
=35	=35
2[a-	all
8a-]	_
8a-	is
=36	=36
2.e-	bright
=37	=37
8r	.
2f	round
8f	yon
=38	=38
4.a-	vir-
8g	_
4f	-gin
=39	=39
8r	.
4e-	mo-
8f	-ther
4e-	and
=40	=40
2.c	child
=41	=41
8r	.
2f	ho-
8f	-ly
=42	=42
4.a-	in-
8g	-fant
8r	.
8A-	so
=43	=43
4.e-	ten-
8f	-der
4e-	and
=44	=44
2.c	mild
=45	=45
2b-	sleep
4b-	in
=46	=46
4.dd-	hea-
8b-	-ven-
4g	-ly
=47	=47
2.[a-	peace
=48	=48
2.a-]	_
=49	=49
8a-	sleep
4.e-	_
8r	.
8c	in
=50	=50
4.e-	hea-
8d-	-ven-
4B-	-ly
=51	=51
2.[A-	peace
=52	=52
2A-]	_
4r	.
r;	.
r;	.
*-	*-
!!!ENC: Nathaniel Condit-Schultz